X: 534
T: Jie shunshun
%%abc-version 2.0
%%abcx-abcm2ps-target-version 5.9.1 (29 Sep 2008)
%%abc-creator hum2abc beta
%%abcx-conversion-date 2013/10/02 07:52:30
%%abc-edited-by Helmut Schaffrath
%%humdrum-veritas 920755228
%%humdrum-veritas-data 1577260896
%%continueall 1
%%barnumbers 0
L: 1/8
M: 2/4
K: G
g> e d d [I:setbarnb 1]| 
e BA2 | 
g> e d B | 
A/ B/ A/ G/E2 | 
e> e f e | 
A B/ A/E2 | 
A/ A/ A/ B/ d F | 
E DE2 |]  



